images/sauna.svg

<?xml version="1.0" encoding="UTF-8" standalone="no"?>
<svg xmlns:dc="http://purl.org/dc/elements/1.1/" xmlns:cc="http://creativecommons.org/ns#" xmlns:rdf="http://www.w3.org/1999/02/22-rdf-syntax-ns#" xmlns:svg="http://www.w3.org/2000/svg" xmlns="http://www.w3.org/2000/svg" xmlns:sodipodi="http://sodipodi.sourceforge.net/DTD/sodipodi-0.dtd" xmlns:inkscape="http://www.inkscape.org/namespaces/inkscape" version="1.1" viewBox="0 0 14 14" id="svg30" sodipodi:docname="sauna.svg" inkscape:version="1.0.1 (3bc2e813f5, 2020-09-07)">
  <defs id="defs34" />
  <sodipodi:namedview pagecolor="#ffffff" bordercolor="#666666" borderopacity="1" objecttolerance="10" gridtolerance="10" guidetolerance="10" inkscape:pageopacity="0" inkscape:pageshadow="2" inkscape:window-width="1847" inkscape:window-height="1056" id="namedview32" showgrid="false" inkscape:pagecheckerboard="true" inkscape:zoom="26.892857" inkscape:cx="10.58862" inkscape:cy="5.7887344" inkscape:window-x="0" inkscape:window-y="0" inkscape:window-maximized="1" inkscape:current-layer="svg30" />
  <metadata id="metadata2">
    <rdf:RDF>
      <cc:Work rdf:about="">
        <dc:format>image/svg+xml</dc:format>
        <dc:type rdf:resource="http://purl.org/dc/dcmitype/StillImage" />
        <dc:title></dc:title>
      </cc:Work>
    </rdf:RDF>
  </metadata>
  <path id="path880" d="M 2.3320312 0.04296875 L 1.3671875 0.0703125 C -2.6306125 2.6704125 4.5934906 3.0954875 0.15039062 6.1796875 L 1.0273438 6.1679688 C 5.1949438 2.8764687 -2.0672687 2.6368688 2.3320312 0.04296875 z M 5.3652344 0.04296875 L 4.4023438 0.0703125 C 0.40454365 2.6704125 7.6266937 3.0974406 3.1835938 6.1816406 L 4.0625 6.1699219 C 8.2301 2.8784219 0.96593432 2.6368688 5.3652344 0.04296875 z M 10.205078 0.83203125 A 1.3921 1.3921 0 0 0 8.8164062 2.2246094 A 1.3921 1.3921 0 0 0 10.208984 3.6171875 A 1.3921 1.3921 0 0 0 11.601562 2.2246094 A 1.3921 1.3921 0 0 0 10.208984 0.83203125 A 1.3921 1.3921 0 0 0 10.205078 0.83203125 z M 11.425781 4.0625 C 11.339842 4.0578994 11.250403 4.0704796 11.164062 4.1015625 C 10.991389 4.1637284 10.861237 4.2881393 10.789062 4.4414062 C 10.780939 4.4542304 10.768745 4.4627311 10.761719 4.4765625 L 9.5566406 6.84375 L 7.0761719 7.6914062 C 6.8239662 7.7776756 6.6906513 8.0506775 6.7773438 8.3027344 C 6.8640358 8.5547902 7.1364662 8.6878319 7.3886719 8.6015625 L 10.03125 7.6992188 C 10.169049 7.6520832 10.266102 7.546455 10.316406 7.421875 C 10.329024 7.4037817 10.347125 7.3913647 10.357422 7.3710938 L 11.105469 5.8964844 L 12.40625 9.5195312 L 9.359375 9.5136719 C 9.1185791 9.513239 8.9170118 9.6509793 8.8066406 9.8457031 L 6.3574219 12.804688 C 6.1141168 13.098655 6.1366792 13.550235 6.4082031 13.818359 C 6.679727 14.086483 7.0926325 14.065454 7.3359375 13.771484 L 9.7949219 10.800781 L 13.300781 10.808594 L 13.357422 10.808594 C 13.415201 10.808698 13.466324 10.789454 13.519531 10.775391 C 13.533233 10.771418 13.54693 10.774434 13.560547 10.769531 C 13.562842 10.768705 13.564126 10.766474 13.566406 10.765625 C 13.792961 10.687303 13.953234 10.489392 13.984375 10.244141 C 13.988204 10.219524 13.997038 10.196989 13.998047 10.171875 C 13.998069 10.169739 13.999999 10.168156 14 10.166016 C 14.000011 10.149422 13.991446 10.135413 13.990234 10.119141 C 13.987588 10.053195 13.984498 9.9874372 13.960938 9.921875 L 12.011719 4.5 C 11.91861 4.2409255 11.6836 4.0763017 11.425781 4.0625 z M 0.83007812 10.095703 L 1.2089844 14 L 3.7539062 14 L 4.2011719 10.095703 L 0.83007812 10.095703 z M 10.591797 12.099609 L 10.591797 12.830078 L 14 12.830078 L 14 12.099609 L 10.591797 12.099609 z " style="fill:none;stroke:#ffffff;stroke-opacity:0.5;stroke-width:3;stroke-miterlimit:4;stroke-dasharray:none;stroke-linejoin:round;stroke-linecap:round" />
  <path d="m0 0v14h14v-3.0879c-0.60296-0.26883-0.76534-0.32352-0.7168-0.98047-0.21853-0.61728-0.35897-1.263-0.48242-1.9062-0.0093-0.048426 0.08558-0.048509 0.125-0.078125 0.02694-0.020238 0.05602-0.041951 0.07422-0.070312 0.0042-0.00659-0.01311-0.00918-0.01953-0.013672 0.0035-0.076059 0.01266-0.074037 0.08594-0.16211-0.03731-0.10155-0.06732-0.20749-0.11133-0.30469 0.19347-0.13603 0.37109-0.29748 0.58008-0.4082 0.01355-0.00718 0.03058-0.00476 0.04492-0.00977 0.03638-0.02021 0.13456-0.045363 0.1875-0.066406 0.076901-0.030559 0.15476-0.059081 0.23242-0.087887v-6.8242z" fill="none" visibility="hidden" id="path4" />
  <path d="m13.068 7.9492c-0.02009 0.010037-0.04307 0.024603-0.06055 0.029297l0.09766-0.027344c-0.0084-0.00964-0.01975-0.010628-0.03711-0.00195z" fill="none" visibility="hidden" id="path6" />
  <path d="m13.979 9.9258c-0.05456 0.053192-0.10755 0.095946-0.13281 0.046875-6.67e-4 -0.0013-0.0013-0.00261-2e-3 -0.00391-0.06841 0.036743-0.14969 0.089871-0.22656 0.13672 0.0757 0.1435 0.19358 0.26645 0.33203 0.37695 0.01102-0.01701 0.03821-0.04094 0.05078-0.05859v-0.45508c-0.0051-0.017731-9e-3 -0.037605-0.02148-0.042969z" fill="none" visibility="hidden" id="path8" />
  <path id="path10" d="M 2.3320312 0.04296875 L 1.3671875 0.0703125 C -2.6306125 2.6704125 4.5934906 3.0954875 0.15039062 6.1796875 L 1.0273438 6.1679688 C 5.1949438 2.8764687 -2.0672687 2.6368688 2.3320312 0.04296875 z M 5.3652344 0.04296875 L 4.4023438 0.0703125 C 0.40454365 2.6704125 7.6266937 3.0974406 3.1835938 6.1816406 L 4.0625 6.1699219 C 8.2301 2.8784219 0.96593432 2.6368688 5.3652344 0.04296875 z M 10.205078 0.83203125 A 1.3921 1.3921 0 0 0 8.8164062 2.2246094 A 1.3921 1.3921 0 0 0 10.208984 3.6171875 A 1.3921 1.3921 0 0 0 11.601562 2.2246094 A 1.3921 1.3921 0 0 0 10.208984 0.83203125 A 1.3921 1.3921 0 0 0 10.205078 0.83203125 z M 11.425781 4.0625 C 11.339842 4.0578994 11.250403 4.0704796 11.164062 4.1015625 C 10.991389 4.1637284 10.861237 4.2881393 10.789062 4.4414062 C 10.780939 4.4542304 10.768745 4.4627311 10.761719 4.4765625 L 9.5566406 6.84375 L 7.0761719 7.6914062 C 6.8239662 7.7776756 6.6906513 8.0506775 6.7773438 8.3027344 C 6.8640358 8.5547902 7.1364662 8.6878319 7.3886719 8.6015625 L 10.03125 7.6992188 C 10.169049 7.6520832 10.266102 7.546455 10.316406 7.421875 C 10.329024 7.4037817 10.347125 7.3913647 10.357422 7.3710938 L 11.105469 5.8964844 L 12.40625 9.5195312 L 9.359375 9.5136719 C 9.1185791 9.513239 8.9170118 9.6509793 8.8066406 9.8457031 L 6.3574219 12.804688 C 6.1141168 13.098655 6.1366792 13.550235 6.4082031 13.818359 C 6.679727 14.086483 7.0926325 14.065454 7.3359375 13.771484 L 9.7949219 10.800781 L 13.300781 10.808594 L 13.357422 10.808594 C 13.415201 10.808698 13.466324 10.789454 13.519531 10.775391 C 13.533233 10.771418 13.54693 10.774434 13.560547 10.769531 C 13.562842 10.768705 13.564126 10.766474 13.566406 10.765625 C 13.792961 10.687303 13.953234 10.489392 13.984375 10.244141 C 13.988204 10.219524 13.997038 10.196989 13.998047 10.171875 C 13.998069 10.169739 13.999999 10.168156 14 10.166016 C 14.000011 10.149422 13.991446 10.135413 13.990234 10.119141 C 13.987588 10.053195 13.984498 9.9874372 13.960938 9.921875 L 12.011719 4.5 C 11.91861 4.2409255 11.6836 4.0763017 11.425781 4.0625 z M 0.83007812 10.095703 L 1.2089844 14 L 3.7539062 14 L 4.2011719 10.095703 L 0.83007812 10.095703 z M 10.591797 12.099609 L 10.591797 12.830078 L 14 12.830078 L 14 12.099609 L 10.591797 12.099609 z " />
</svg>

<svg xmlns="http://www.w3.org/2000/svg" viewBox="0 0 14 14">
    <path d="M2.332.043L1.367.07C-2.63 2.67 4.593 3.095.15 6.18l.877-.012C5.195 2.876-2.067 2.637 2.332.043zm3.033 0L4.402.07C.405 2.67 7.627 3.097 3.184 6.182l.878-.012C8.23 2.878.966 2.637 5.365.043zm4.84.789a1.392 1.392 0 00-1.389 1.393 1.392 1.392 0 001.393 1.392 1.392 1.392 0 001.393-1.392A1.392 1.392 0 0010.209.832a1.392 1.392 0 00-.004 0zm1.22 3.23a.669.669 0 00-.636.38c-.008.012-.02.02-.027.035L9.557 6.844l-2.48.847a.48.48 0 10.313.91l2.64-.901a.474.474 0 00.285-.277c.013-.018.031-.03.041-.05l.748-1.476 1.301 3.624-3.047-.006a.635.635 0 00-.552.332l-2.45 2.959a.763.763 0 00.051 1.013.617.617 0 00.928-.047l2.459-2.97 3.506.008h.056c.058 0 .11-.02.163-.034.013-.004.027 0 .04-.005.003-.001.004-.004.006-.004a.628.628 0 00.418-.522c.004-.024.013-.047.014-.072l.002-.006c0-.017-.009-.03-.01-.047a.643.643 0 00-.03-.197L12.013 4.5a.66.66 0 00-.586-.438zM.83 10.096L1.21 14h2.545l.447-3.904H.831zm9.762 2.004v.73H14v-.73h-3.408z" fill="none" stroke="#fff" stroke-opacity=".5" stroke-width="3" stroke-linejoin="round" stroke-linecap="round"/>
    <path d="M2.332.043L1.367.07C-2.63 2.67 4.593 3.095.15 6.18l.877-.012C5.195 2.876-2.067 2.637 2.332.043zm3.033 0L4.402.07C.405 2.67 7.627 3.097 3.184 6.182l.878-.012C8.23 2.878.966 2.637 5.365.043zm4.84.789a1.392 1.392 0 00-1.389 1.393 1.392 1.392 0 001.393 1.392 1.392 1.392 0 001.393-1.392A1.392 1.392 0 0010.209.832a1.392 1.392 0 00-.004 0zm1.22 3.23a.669.669 0 00-.636.38c-.008.012-.02.02-.027.035L9.557 6.844l-2.48.847a.48.48 0 10.313.91l2.64-.901a.474.474 0 00.285-.277c.013-.018.031-.03.041-.05l.748-1.476 1.301 3.624-3.047-.006a.635.635 0 00-.552.332l-2.45 2.959a.763.763 0 00.051 1.013.617.617 0 00.928-.047l2.459-2.97 3.506.008h.056c.058 0 .11-.02.163-.034.013-.004.027 0 .04-.005.003-.001.004-.004.006-.004a.628.628 0 00.418-.522c.004-.024.013-.047.014-.072l.002-.006c0-.017-.009-.03-.01-.047a.643.643 0 00-.03-.197L12.013 4.5a.66.66 0 00-.586-.438zM.83 10.096L1.21 14h2.545l.447-3.904H.831zm9.762 2.004v.73H14v-.73h-3.408z"/>
</svg>
